build/img/icon-inst.svg

<svg width="24" height="24" viewBox="0 0 24 24" fill="none" xmlns="http://www.w3.org/2000/svg">
<path d="M12 24C10.375 24 8.82031 23.6836 7.33594 23.0508C5.85156 22.418 4.57422 21.5664 3.50391 20.4961C2.43359 19.4258 1.58203 18.1484 0.949219 16.6641C0.316406 15.1797 0 13.625 0 12C0 10.375 0.316406 8.82031 0.949219 7.33594C1.58203 5.85156 2.43359 4.57422 3.50391 3.50391C4.57422 2.43359 5.85156 1.58203 7.33594 0.949219C8.82031 0.316406 10.375 0 12 0C13.625 0 15.1797 0.316406 16.6641 0.949219C18.1484 1.58203 19.4258 2.43359 20.4961 3.50391C21.5664 4.57422 22.418 5.85156 23.0508 7.33594C23.6836 8.82031 24 10.375 24 12C24 13.625 23.6836 15.1797 23.0508 16.6641C22.418 18.1484 21.5664 19.4258 20.4961 20.4961C19.4258 21.5664 18.1484 22.418 16.6641 23.0508C15.1797 23.6836 13.625 24 12 24ZM18 7.5C18 7.09375 17.8555 6.74219 17.5664 6.44531C17.2773 6.14844 16.9219 6 16.5 6H7.5C7.09375 6 6.74219 6.14844 6.44531 6.44531C6.14844 6.74219 6 7.09375 6 7.5V9H8.67188C9.57812 8 10.6875 7.5 12 7.5C13.3125 7.5 14.4219 8 15.3281 9H18V7.5ZM9 12C9 12.8281 9.29297 13.5352 9.87891 14.1211C10.4648 14.707 11.1719 15 12 15C12.8281 15 13.5352 14.707 14.1211 14.1211C14.707 13.5352 15 12.8281 15 12C15 11.1719 14.707 10.4648 14.1211 9.87891C13.5352 9.29297 12.8281 9 12 9C11.1719 9 10.4648 9.29297 9.87891 9.87891C9.29297 10.4648 9 11.1719 9 12ZM18 10.5H16.2188C16.4062 11.0156 16.5 11.5156 16.5 12C16.5 13.25 16.0625 14.3125 15.1875 15.1875C14.3125 16.0625 13.25 16.5 12 16.5C10.75 16.5 9.6875 16.0625 8.8125 15.1875C7.9375 14.3125 7.5 13.25 7.5 12C7.5 11.5156 7.59375 11.0156 7.78125 10.5H6V16.5C6 16.9219 6.14453 17.2773 6.43359 17.5664C6.72266 17.8555 7.07812 18 7.5 18H16.5C16.9219 18 17.2773 17.8555 17.5664 17.5664C17.8555 17.2773 18 16.9219 18 16.5V10.5Z" fill="white"/>
</svg>

<svg width="24" height="24" fill="none" xmlns="http://www.w3.org/2000/svg"><path d="M12 24a11.75 11.75 0 01-4.664-.95c-1.484-.632-2.762-1.484-3.832-2.554-1.07-1.07-1.922-2.348-2.555-3.832A11.773 11.773 0 010 12c0-1.625.316-3.18.95-4.664.632-1.484 1.484-2.762 2.554-3.832 1.07-1.07 2.348-1.922 3.832-2.555A11.767 11.767 0 0112 0c1.625 0 3.18.316 4.664.95 1.484.632 2.762 1.484 3.832 2.554 1.07 1.07 1.922 2.348 2.555 3.832C23.684 8.82 24 10.375 24 12c0 1.625-.316 3.18-.95 4.664-.632 1.484-1.484 2.762-2.554 3.832-1.07 1.07-2.348 1.922-3.832 2.555A11.767 11.767 0 0112 24zm6-16.5a1.46 1.46 0 00-.434-1.055A1.43 1.43 0 0016.5 6h-9c-.406 0-.758.148-1.055.445A1.442 1.442 0 006 7.5V9h2.672C9.578 8 10.687 7.5 12 7.5c1.313 0 2.422.5 3.328 1.5H18V7.5zM9 12c0 .828.293 1.535.879 2.121A2.89 2.89 0 0012 15a2.89 2.89 0 002.121-.879A2.89 2.89 0 0015 12a2.89 2.89 0 00-.879-2.121A2.89 2.89 0 0012 9a2.89 2.89 0 00-2.121.879A2.89 2.89 0 009 12zm9-1.5h-1.781A4.38 4.38 0 0116.5 12c0 1.25-.438 2.313-1.313 3.188-.874.874-1.937 1.312-3.187 1.312-1.25 0-2.313-.438-3.188-1.313C7.939 14.313 7.5 13.25 7.5 12c0-.484.094-.984.281-1.5H6v6c0 .422.145.777.434 1.066.289.29.644.434 1.066.434h9a1.45 1.45 0 001.066-.434c.29-.289.434-.644.434-1.066v-6z" fill="#fff"/></svg>
